static/img/general/features-icon-8.svg

<svg width="47" height="41" viewBox="0 0 47 41" fill="none" xmlns="http://www.w3.org/2000/svg">
<path d="M45.4247 9.08982L43.8126 8.93416C43.6294 8.27551 43.3626 7.64333 43.0181 7.0528L44.0392 5.82163C44.2468 5.57102 44.2305 5.20393 44.0015 4.97308L42.0693 3.02078C41.8388 2.78782 41.4682 2.76981 41.2161 2.97913L39.98 4.00346C39.3884 3.66178 38.7566 3.39528 38.099 3.20962L37.9437 1.5877C37.9137 1.2605 37.6426 1.00741 37.314 1H34.5432C34.2142 1.00741 33.9435 1.2605 33.9135 1.5877L33.7578 3.20115C33.0984 3.38434 32.4648 3.65154 31.8733 3.9964L30.6414 2.97701C30.3901 2.76911 30.0216 2.7864 29.7907 3.01725L27.8349 4.96955C27.6033 5.2004 27.586 5.56961 27.7946 5.82128L28.8179 7.05775C28.6683 7.32036 28.5324 7.59074 28.4102 7.86747H7.5332C6.68359 7.86853 5.86928 8.20809 5.27064 8.81097C4.67199 9.4142 4.33843 10.2306 4.34337 11.0802V12.1145H3.32645C2.03951 12.1286 1.00247 13.1744 1 14.4614V24.2698C1.00635 25.548 2.04798 26.5793 3.32645 26.5723H4.34337V31.7649C4.33843 32.6142 4.67199 33.4306 5.27064 34.0335C5.86963 34.636 6.68359 34.9752 7.5332 34.9759H16.9036V39.6747H13.9831C13.6337 39.6747 13.3506 39.9578 13.3506 40.3072C13.3506 40.6567 13.6337 40.9398 13.9831 40.9398H32.845C33.1944 40.9398 33.4775 40.6567 33.4775 40.3072C33.4775 39.9578 33.1944 39.6747 32.845 39.6747H29.9157V34.9759H39.2945C40.1431 34.9748 40.9563 34.6353 41.5536 34.0324C42.1508 33.4295 42.483 32.6134 42.4759 31.7649V18.7426L44.0039 17.2354C44.238 17.007 44.2591 16.6378 44.053 16.384L43.0347 15.15C43.3763 14.5592 43.6439 13.928 43.8306 13.2712L45.4243 13.1158C45.749 13.0844 45.9979 12.8126 46 12.4861V9.71917C45.9982 9.39303 45.7497 9.12088 45.4247 9.08982V9.08982ZM3.32645 13.3795H18.8443C19.4253 13.3795 19.8855 13.88 19.8855 14.4614V15.0964H2.26506V14.4614C2.26683 13.8726 2.73769 13.3926 3.32645 13.3795ZM2.26506 16.3614H19.8855V18.1687H2.26506V16.3614ZM2.26506 24.2698V19.4337H19.8855V24.2698C19.8877 24.5462 19.7782 24.8117 19.5823 25.0068C19.3868 25.202 19.1206 25.3104 18.8443 25.3072H3.32645C3.04796 25.3111 2.77934 25.2035 2.58027 25.009C2.38119 24.8141 2.26753 24.5483 2.26506 24.2698V24.2698ZM28.6506 39.6747H18.1687V34.9759H28.6506V39.6747ZM41.2108 31.7649C41.2183 32.2781 41.0195 32.7726 40.6595 33.1383C40.2995 33.504 39.8078 33.7101 39.2945 33.7108H7.5332C7.01892 33.7105 6.52652 33.5047 6.16507 33.1394C5.80363 32.7737 5.60314 32.2788 5.60843 31.7649V29.1928H41.2108V31.7649ZM5.60843 27.9277V26.5723H18.8443C19.456 26.5748 20.0437 26.3333 20.4764 25.9009C20.9095 25.4685 21.152 24.8815 21.1506 24.2698V14.4614C21.1506 13.1826 20.1231 12.1145 18.8443 12.1145H5.60843V11.0802C5.60314 10.566 5.80328 10.0711 6.16472 9.70541C6.52617 9.33937 7.01892 9.13324 7.5332 9.13253H26.249C26.0054 9.22466 25.8459 9.45903 25.8494 9.71917V12.4861C25.8473 12.8112 26.0933 13.0841 26.4166 13.1158L28.0244 13.2715C28.2069 13.9302 28.4731 14.5623 28.8169 15.1525L27.7957 16.384C27.5871 16.6357 27.6044 17.0046 27.8356 17.2354L29.7914 19.1874C30.0223 19.4179 30.3908 19.4348 30.6417 19.2265L31.8764 18.2022C32.468 18.5439 33.1002 18.8104 33.7574 18.996L33.9131 20.5904C33.9456 20.9123 34.2191 21.1555 34.5428 21.1506H37.3137C37.637 21.1555 37.9105 20.9123 37.9434 20.5904L38.0987 18.9908C38.758 18.81 39.3916 18.5449 39.9832 18.2022L41.1974 19.2251C41.2052 19.2311 41.2101 19.2403 41.2105 19.2502V27.9277H5.60843ZM44.7349 11.9126L43.2712 12.0555C42.9983 12.082 42.7735 12.2807 42.7135 12.5479C42.5289 13.3714 42.1971 14.1546 41.7347 14.8602C41.5832 15.0921 41.6005 15.3957 41.777 15.6093L42.7209 16.7476L41.5804 17.8856L40.441 16.941C40.2268 16.7635 39.9211 16.7469 39.6885 16.9004C38.9864 17.3653 38.2031 17.6943 37.3797 17.8704C37.1118 17.9234 36.9099 18.145 36.8827 18.4168L36.7397 19.8855H35.1171L34.9738 18.4168C34.947 18.1436 34.7451 17.9198 34.4761 17.8648C33.6522 17.6837 32.8679 17.3544 32.1616 16.8927C31.9294 16.7444 31.6279 16.7631 31.4162 16.9396L30.2771 17.8845L29.137 16.7472L30.0805 15.6089C30.2588 15.3939 30.275 15.0876 30.1204 14.855C29.6545 14.1546 29.3241 13.3728 29.1462 12.5504C29.0897 12.2825 28.8663 12.082 28.5938 12.0555L27.1145 11.9122V10.2938L28.5934 10.1502C28.8656 10.1237 29.0893 9.92496 29.1479 9.65776C29.3318 8.83462 29.6626 8.05137 30.1246 7.34542C30.2757 7.11316 30.258 6.80961 30.0809 6.59641L29.137 5.45807L30.2771 4.32043L31.4162 5.26499C31.6308 5.44289 31.9364 5.45948 32.1687 5.30558C32.8708 4.84071 33.6537 4.51139 34.4772 4.33526C34.7486 4.26995 34.9484 4.03946 34.9741 3.76132L35.1171 2.26506H36.7397L36.883 3.76132C36.9091 4.0377 37.11 4.26572 37.3811 4.32714C38.2053 4.51068 38.9892 4.84248 39.6952 5.30593C39.9267 5.4556 40.2282 5.43795 40.441 5.26287L41.5772 4.32149L42.6986 5.45489L41.753 6.59641C41.5748 6.81137 41.5585 7.11775 41.7131 7.35036C42.1791 8.05102 42.5094 8.83285 42.6873 9.65493C42.7473 9.92425 42.9736 10.124 43.2482 10.1502L44.7349 10.2938V11.9126Z" fill="#E20E17" stroke="#E20E17" stroke-width="0.1"/>
<path d="M35.9187 5.51978C32.8362 5.52366 30.34 8.02519 30.3428 11.1077C30.3452 14.1902 32.8457 16.6872 35.9282 16.6861C39.0108 16.6847 41.5091 14.1853 41.5091 11.1028C41.5035 8.01883 39.0026 5.52119 35.9187 5.51978ZM35.9187 15.4211C33.5347 15.4168 31.605 13.4818 31.6078 11.0978C31.6103 8.71419 33.5446 6.78342 35.9282 6.78484C38.3122 6.78589 40.2441 8.71878 40.2441 11.1028C40.2391 13.4885 38.3041 15.42 35.9187 15.4211Z" fill="#E20E17" stroke="#E20E17" stroke-width="0.1"/>
</svg>

<svg width="47" height="41" viewBox="0 0 47 41" fill="none" xmlns="http://www.w3.org/2000/svg"><path d="M45.425 9.09l-1.612-.156a7.973 7.973 0 0 0-.795-1.881l1.021-1.231a.632.632 0 0 0-.038-.849L42.07 3.021a.632.632 0 0 0-.853-.042L39.98 4.003a8.234 8.234 0 0 0-1.881-.793l-.155-1.622a.647.647 0 0 0-.63-.588h-2.77a.647.647 0 0 0-.63.588L33.758 3.2c-.66.183-1.293.45-1.885.795l-1.232-1.019a.633.633 0 0 0-.85.04L27.835 4.97a.633.633 0 0 0-.04.851l1.023 1.237a8.64 8.64 0 0 0-.408.81H7.533a3.194 3.194 0 0 0-3.19 3.212v1.034H3.326A2.352 2.352 0 0 0 1 14.461v9.809a2.314 2.314 0 0 0 2.326 2.302h1.017v5.193a3.193 3.193 0 0 0 3.19 3.21h9.37v4.7h-2.92a.632.632 0 1 0 0 1.265h18.862a.632.632 0 1 0 0-1.265h-2.93v-4.7h9.38a3.186 3.186 0 0 0 3.18-3.21V18.743l1.529-1.508a.632.632 0 0 0 .049-.851l-1.018-1.234c.341-.59.609-1.222.796-1.879l1.593-.155a.637.637 0 0 0 .576-.63V9.72a.636.636 0 0 0-.575-.63zM3.326 13.38h15.518c.581 0 1.041.5 1.041 1.081v.635H2.265v-.635a1.085 1.085 0 0 1 1.061-1.082zm-1.06 2.981h17.62v1.808H2.265V16.36zm0 7.909v-4.836h17.62v4.836a1.029 1.029 0 0 1-1.042 1.037H3.326a1.047 1.047 0 0 1-1.06-1.037zM28.65 39.675H18.169v-4.7H28.65v4.7zm12.56-7.91a1.918 1.918 0 0 1-1.916 1.946H7.532a1.926 1.926 0 0 1-1.925-1.946v-2.572H41.21v2.572zM5.608 27.928v-1.356h13.236a2.296 2.296 0 0 0 2.307-2.302v-9.81c0-1.278-1.028-2.347-2.307-2.347H5.608V11.08a1.927 1.927 0 0 1 1.925-1.947H26.25a.618.618 0 0 0-.4.586v2.767a.629.629 0 0 0 .568.63l1.607.155c.183.66.45 1.291.793 1.881l-1.021 1.232a.633.633 0 0 0 .04.851l1.955 1.952c.231.23.6.248.85.04l1.235-1.025a8.237 8.237 0 0 0 1.881.794l.156 1.594a.623.623 0 0 0 .63.56h2.77a.624.624 0 0 0 .63-.56l.156-1.6a7.96 7.96 0 0 0 1.884-.788l1.214 1.023a.034.034 0 0 1 .014.025v8.678H5.608zm39.127-16.015l-1.464.143a.634.634 0 0 0-.557.492 7.02 7.02 0 0 1-.98 2.312.633.633 0 0 0 .043.75l.944 1.138-1.14 1.138-1.14-.945a.633.633 0 0 0-.753-.04 6.732 6.732 0 0 1-2.308.97.62.62 0 0 0-.497.546l-.143 1.468h-1.623l-.143-1.468a.626.626 0 0 0-.498-.552 6.961 6.961 0 0 1-2.314-.972.632.632 0 0 0-.746.047l-1.139.944-1.14-1.137.944-1.138a.632.632 0 0 0 .04-.754 6.73 6.73 0 0 1-.975-2.305.627.627 0 0 0-.552-.495l-1.48-.143v-1.618l1.48-.144a.63.63 0 0 0 .554-.492 7.016 7.016 0 0 1 .977-2.313.632.632 0 0 0-.044-.749l-.944-1.138 1.14-1.138 1.14.945a.63.63 0 0 0 .752.04 6.732 6.732 0 0 1 2.308-.97.652.652 0 0 0 .497-.574l.143-1.496h1.623l.143 1.496a.642.642 0 0 0 .498.566 6.983 6.983 0 0 1 2.314.979c.232.15.533.132.746-.043l1.136-.942L42.7 5.455l-.946 1.141a.633.633 0 0 0-.04.754 6.74 6.74 0 0 1 .974 2.305c.06.27.287.469.561.495l1.487.144v1.619z" fill="#E20E17" stroke="#E20E17" stroke-width=".1"/><path d="M35.919 5.52a5.583 5.583 0 1 0 5.59 5.583 5.593 5.593 0 0 0-5.59-5.583zm0 9.901a4.318 4.318 0 1 1 4.325-4.318 4.327 4.327 0 0 1-4.325 4.318z" fill="#E20E17" stroke="#E20E17" stroke-width=".1"/></svg>
